X:1
T:Old Soldier, The
T:Poor Old Soldier, The
M:6/8
L:1/8
R:March
B:Bayard - Dance to the Fiddle, March to the Fife (1981, No. 449)
Z:AK/Fiddler's Companion
K:G
B>BB Bcd|e2f e3|d2e d2B|d3 B2z|
B>BB Bcd|e2e e3|def g2B|A3 G3||
g3 f3|e3 d3|g3 f3|e3 d3|
B>BB Bcd|e2e e3|def g2B|A3 Gz2||

